rospo-icon-theme-classic-common/32x32/apps/openbox.svg

<svg height="32" width="32" xmlns="http://www.w3.org/2000/svg"><rect height="28" opacity=".2" rx="1.389" ry="1.4" transform="matrix(0 -1 -1 0 0 0)" width="25" x="-29" y="-30"/><rect fill="#5489cd" height="28" rx="1.389" ry="1.4" transform="matrix(0 -1 -1 0 0 0)" width="25" x="-28" y="-30"/><path d="m2 11h28v15h-28z" opacity=".2"/><path d="m2 10h28v15h-28z" fill="#e4e4e4"/><path d="m8 25h1v3h-1z" opacity=".2"/><path d="m23 25h1v3h-1z" opacity=".2"/><path d="m3.4003906 3c-.7756 0-1.4003906.6192275-1.4003906 1.3886719v1c0-.7694444.6247906-1.3886719 1.4003906-1.3886719h25.1992184c.7756 0 1.400391.6192275 1.400391 1.3886719v-1c0-.7694444-.624791-1.3886719-1.400391-1.3886719z" fill="#fff" opacity=".2"/><path d="m2 10v1h28v-1z" fill="#fff" opacity=".2"/></svg>

<svg xmlns="http://www.w3.org/2000/svg" width="32" height="32" version="1">
 <rect style="opacity:0.2" width="25" height="28" x="-29" y="-30" rx="1.389" ry="1.4" transform="matrix(0,-1,-1,0,0,0)"/>
 <rect width="25" height="28" x="-28" y="-30" rx="1.389" ry="1.4" transform="matrix(0,-1,-1,0,0,0)" style="fill:#5489cd"/>
 <rect width="28" height="15" x="2" y="11" style="opacity:0.2"/>
 <rect style="fill:#cccccc" width="28" height="15" x="2" y="10"/>
 <rect style="opacity:0.2" width="1" height="3" x="8" y="25"/>
 <rect width="1" height="3" x="23" y="25" style="opacity:0.2"/>
 <path style="fill:#ffffff;opacity:0.2" d="M 3.4003906 3 C 2.6247906 3 2 3.6192275 2 4.3886719 L 2 5.3886719 C 2 4.6192275 2.6247906 4 3.4003906 4 L 28.599609 4 C 29.375209 4 30 4.6192275 30 5.3886719 L 30 4.3886719 C 30 3.6192275 29.375209 3 28.599609 3 L 3.4003906 3 z"/>
 <path style="opacity:0.2;fill:#ffffff" d="M 2 10 L 2 11 L 30 11 L 30 10 L 2 10 z"/>
</svg>
